public/images/sidebar/address-book.svg

<svg width="16" height="16" viewBox="0 0 16 16" fill="none" xmlns="http://www.w3.org/2000/svg">
<path fill-rule="evenodd" clip-rule="evenodd" d="M2.66665 6V10H1.99998C1.63179 10 1.33331 10.2985 1.33331 10.6667C1.33331 11.0349 1.63179 11.3333 1.99998 11.3333H2.66665V13.3333C2.66665 14.0697 3.2636 14.6667 3.99998 14.6667H12C12.7364 14.6667 13.3333 14.0697 13.3333 13.3333V2.66667C13.3333 1.93029 12.7364 1.33333 12 1.33333H3.99998C3.2636 1.33333 2.66665 1.93029 2.66665 2.66667V4.66667H1.99998C1.63179 4.66667 1.33331 4.96514 1.33331 5.33333C1.33331 5.70152 1.63179 6 1.99998 6H2.66665ZM4.66665 10H3.99998V6H4.66665C5.03484 6 5.33331 5.70152 5.33331 5.33333C5.33331 4.96514 5.03484 4.66667 4.66665 4.66667H3.99998V2.66667H12V13.3333H3.99998V11.3333H4.66665C5.03484 11.3333 5.33331 11.0349 5.33331 10.6667C5.33331 10.2985 5.03484 10 4.66665 10Z" fill="#121312" fill-opacity="0.87"/>
</svg>

<svg width="16" height="16" fill="none" xmlns="http://www.w3.org/2000/svg"><path fill-rule="evenodd" clip-rule="evenodd" d="M2.667 6v4H2a.667.667 0 100 1.334h.667v2c0 .736.597 1.333 1.333 1.333h8c.736 0 1.333-.597 1.333-1.333V2.667c0-.737-.597-1.333-1.333-1.333H4c-.736 0-1.333.596-1.333 1.333v2H2A.667.667 0 002 6h.667zm2 4H4V6h.667a.667.667 0 100-1.333H4v-2h8v10.666H4v-2h.667a.667.667 0 000-1.333z" fill="#162D45"/><path d="M2.667 10v.25h.25V10h-.25zm0-4h.25v-.25h-.25V6zm0 5.334h.25v-.25h-.25v.25zm0-6.667v.25h.25v-.25h-.25zM4 10h-.25v.25H4V10zm0-4v-.25h-.25V6H4zm0-1.333h-.25v.25H4v-.25zm0-2v-.25h-.25v.25H4zm8 0h.25v-.25H12v.25zm0 10.666v.25h.25v-.25H12zm-8 0h-.25v.25H4v-.25zm0-2v-.25h-.25v.25H4zM2.917 10V6h-.5v4h.5zM2 10.25h.667v-.5H2v.5zm-.417.417c0-.23.187-.417.417-.417v-.5a.917.917 0 00-.917.917h.5zm.417.417a.417.417 0 01-.417-.417h-.5c0 .506.41.917.917.917v-.5zm.667 0H2v.5h.667v-.5zm.25 2.25v-2h-.5v2h.5zM4 14.417a1.083 1.083 0 01-1.083-1.083h-.5c0 .874.708 1.583 1.583 1.583v-.5zm8 0H4v.5h8v-.5zm1.083-1.083c0 .598-.485 1.083-1.083 1.083v.5c.874 0 1.583-.71 1.583-1.583h-.5zm0-10.667v10.667h.5V2.667h-.5zM12 1.584c.598 0 1.083.485 1.083 1.083h.5c0-.875-.709-1.583-1.583-1.583v.5zm-8 0h8v-.5H4v.5zM2.917 2.667c0-.598.485-1.083 1.083-1.083v-.5c-.875 0-1.583.708-1.583 1.583h.5zm0 2v-2h-.5v2h.5zM2 4.917h.667v-.5H2v.5zm-.417.417c0-.23.187-.417.417-.417v-.5a.917.917 0 00-.917.917h.5zM2 5.75a.417.417 0 01-.417-.417h-.5c0 .507.41.917.917.917v-.5zm.667 0H2v.5h.667v-.5zM4 10.25h.667v-.5H4v.5zM3.75 6v4h.5V6h-.5zm.917-.25H4v.5h.667v-.5zm.416-.417c0 .23-.186.417-.416.417v.5c.506 0 .916-.41.916-.917h-.5zm-.416-.416c.23 0 .416.186.416.417h.5a.917.917 0 00-.916-.917v.5zm-.667 0h.667v-.5H4v.5zm-.25-2.25v2h.5v-2h-.5zm8.25-.25H4v.5h8v-.5zm.25 10.916V2.668h-.5v10.667h.5zm-8.25.25h8v-.5H4v.5zm-.25-2.25v2h.5v-2h-.5zm.917-.25H4v.5h.667v-.5zm.416-.416c0 .23-.186.417-.416.417v.5c.506 0 .916-.41.916-.917h-.5zm-.416-.417c.23 0 .416.187.416.417h.5a.917.917 0 00-.916-.917v.5z" fill="#162D45"/></svg>
